!!!ONR: No. 3
!! Transcription 3 (LF 78.4)
!!!OTL: Sen~ora Santa Ana ?por que/ llora el Nin~i?
!!!SINGER: Rosa Luisa Marti/nez
!!!PLACE: South America, Colombia, Evitar
!!!DATE 1964 November 1
!! From George List, "Music and Poetry in a Colombian Village:
!! A Tri-Cultural Heritage"
!! Bloomington, Indiana: Indiana University Press, 1983
**kern
*clefG2
*k[f#]
*M6/4
*MM264
*>verse 1
{4e
=
4a
4b
4dd
4cc
4a
4cc
=
4b
4g
4e
4d
4d}
{4d
=
4g
4b
4dd
4ee
4cc}
{4cc
=
4b
4g
4e
4d
4d
4B}
=
{4c
4c
4c
4.g
4.g
*M2/2
=
8d
8f
16a
16a
8f
8a
8g}
8r
{8B
=
6c
6c
6c
4g
4g
=
8d
8d
16c
16c
8A
8g
8G}
8r
=
*>verse 2
*M6/4
{4f#
=
4g
4b
4dd
4cc
4a
4cc
=
4b
4g
4e
4d
4d}
{4d
=
4g
4b
4dd
4ee
4cc
4cc
=
4b
4g
4e
4d
4d}
{4B
=
4c
4c
4c
4g
4g
4d
=
4d
4c
4A
4G}
4r
{4B
=
4c
4c
4c
4g
4g
4d
=
4d
4c
4A
4G}
4r
4r
=
*>verse 3
*M2/2
{8b
8b
8b
8b
4b
8a
8b
=
8b
8b
8g
8e
3d}
{6B
=
6c
6c
6c
4g
4g
=
8d
8f
8a
8f
8a
8g}
8r
{8B
=
6c
6c
6c
4g
4g
=
8d
8d
8c
8A
4g}
4r
==
*-
